icons/inbox-in.svg

<svg width="24" height="24" viewBox="0 0 24 24" fill="none" xmlns="http://www.w3.org/2000/svg">
<path fill-rule="evenodd" clip-rule="evenodd" d="M12 1C12.5523 1 13 1.44772 13 2V7.73149L16.3254 4.69258C16.7331 4.32001 17.3656 4.34849 17.7382 4.75618C18.1107 5.16387 18.0823 5.79639 17.6746 6.16896L12.6746 10.7382C12.2926 11.0873 11.7074 11.0873 11.3254 10.7382L6.32539 6.16896C5.9177 5.79639 5.88923 5.16387 6.26179 4.75618C6.63436 4.34849 7.26688 4.32001 7.67458 4.69258L11 7.73149V2C11 1.44772 11.4477 1 12 1ZM3.49998 12H6.437C7.43395 12 8.36577 12.4953 8.92354 13.3216L9.98412 14.8928C10.17 15.1682 10.4806 15.3333 10.813 15.3333H12H13.187C13.5193 15.3333 13.8299 15.1682 14.0158 14.8928L15.0764 13.3216C15.6342 12.4953 16.566 12 17.563 12H20.5C21.0523 12 21.5 12.4477 21.5 13C21.5 15.2712 21.7404 18.2181 21.8873 19.8025C21.9959 20.9747 21.0773 22 19.8884 22H19.8779H19.8674H19.8568H19.8462H19.8356H19.8249H19.8142H19.8034H19.7926H19.7818H19.7709H19.7599H19.749H19.738H19.7269H19.7159H19.7047H19.6936H19.6824H19.6712H19.6599H19.6486H19.6372H19.6258H19.6144H19.6029H19.5914H19.5799H19.5683H19.5567H19.5451H19.5334H19.5217H19.5099H19.4981H19.4863H19.4744H19.4625H19.4506H19.4386H19.4266H19.4145H19.4025H19.3903H19.3782H19.366H19.3538H19.3415H19.3292H19.3169H19.3046H19.2922H19.2797H19.2673H19.2548H19.2422H19.2297H19.2171H19.2044H19.1918H19.1791H19.1663H19.1536H19.1408H19.128H19.1151H19.1022H19.0893H19.0763H19.0633H19.0503H19.0372H19.0242H19.011H18.9979H18.9847H18.9715H18.9583H18.945H18.9317H18.9183H18.905H18.8916H18.8781H18.8647H18.8512H18.8377H18.8241H18.8106H18.797H18.7833H18.7697H18.756H18.7422H18.7285H18.7147H18.7009H18.6871H18.6732H18.6593H18.6454H18.6314H18.6174H18.6034H18.5894H18.5753H18.5613H18.5471H18.533H18.5188H18.5046H18.4904H18.4761H18.4619H18.4476H18.4332H18.4189H18.4045H18.3901H18.3757H18.3612H18.3467H18.3322H18.3177H18.3031H18.2885H18.2739H18.2593H18.2446H18.2299H18.2152H18.2005H18.1857H18.1709H18.1561H18.1413H18.1264H18.1116H18.0967H18.0817H18.0668H18.0518H18.0368H18.0218H18.0068H17.9917H17.9766H17.9615H17.9464H17.9313H17.9161H17.9009H17.8857H17.8704H17.8552H17.8399H17.8246H17.8093H17.7939H17.7786H17.7632H17.7478H17.7324H17.7169H17.7014H17.686H17.6705H17.6549H17.6394H17.6238H17.6082H17.5926H17.577H17.5614H17.5457H17.53H17.5143H17.4986H17.4829H17.4671H17.4514H17.4356H17.4198H17.404H17.3881H17.3723H17.3564H17.3405H17.3246H17.3086H17.2927H17.2767H17.2608H17.2448H17.2288H17.2127H17.1967H17.1806H17.1645H17.1485H17.1323H17.1162H17.1001H17.0839H17.0678H17.0516H17.0354H17.0192H17.0029H16.9867H16.9705H16.9542H16.9379H16.9216H16.9053H16.889H16.8726H16.8563H16.8399H16.8235H16.8071H16.7907H16.7743H16.7579H16.7414H16.725H16.7085H16.692H16.6755H16.659H16.6425H16.626H16.6094H16.5929H16.5763H16.5597H16.5432H16.5266H16.51H16.4933H16.4767H16.4601H16.4434H16.4268H16.4101H16.3934H16.3767H16.36H16.3433H16.3266H16.3099H16.2931H16.2764H16.2596H16.2429H16.2261H16.2093H16.1925H16.1757H16.1589H16.1421H16.1253H16.1084H16.0916H16.0748H16.0579H16.041H16.0242H16.0073H15.9904H15.9735H15.9566H15.9397H15.9228H15.9059H15.889H15.8721H15.8551H15.8382H15.8212H15.8043H15.7873H15.7704H15.7534H15.7364H15.7195H15.7025H15.6855H15.6685H15.6515H15.6345H15.6175H15.6005H15.5835H15.5665H15.5495H15.5324H15.5154H15.4984H15.4813H15.4643H15.4473H15.4302H15.4132H15.3961H15.3791H15.362H15.345H15.3279H15.3109H15.2938H15.2767H15.2597H15.2426H15.2255H15.2085H15.1914H15.1743H15.1573H15.1402H15.1231H15.1061H15.089H15.0719H15.0548H15.0378H15.0207H15.0036H14.9866H14.9695H14.9524H14.9353H14.9183H14.9012H14.8841H14.8671H14.85H14.833H14.8159H14.7988H14.7818H14.7647H14.7477H14.7306H14.7136H14.6965H14.6795H14.6625H14.6454H14.6284H14.6114H14.5943H14.5773H14.5603H14.5433H14.5263H14.5092H14.4922H14.4752H14.4582H14.4413H14.4243H14.4073H14.3903H14.3733H14.3564H14.3394H14.3225H14.3055H14.2886H14.2716H14.2547H14.2378H14.2208H14.2039H14.187H14.1701H14.1532H14.1363H14.1194H14.1026H14.0857H14.0688H14.052H14.0351H14.0183H14.0015H13.9846H13.9678H13.951H13.9342H13.9174H13.9006H13.8839H13.8671H13.8503H13.8336H13.8168H13.8001H13.7834H13.7667H13.75H13.7333H13.7166H13.6999H13.6833H13.6666H13.65H13.6334H13.6167H13.6001H13.5835H13.5669H13.5504H13.5338H13.5172H13.5007H13.4842H13.4677H13.4511H13.4347H13.4182H13.4017H13.3852H13.3688H13.3524H13.3359H13.3195H13.3031H13.2868H13.2704H13.254H13.2377H13.2214H13.205H13.1887H13.1725H13.1562H13.1399H13.1237H13.1075H13.0912H13.075H13.0589H13.0427H13.0265H13.0104H12.9943H12.9782H12.9621H12.946H12.9299H12.9139H12.8978H12.8818H12.8658H12.8499H12.8339H12.8179H12.802H12.7861H12.7702H12.7543H12.7385H12.7226H12.7068H12.691H12.6752H12.6594H12.6437H12.6279H12.6122H12.5965H12.5808H12.5652H12.5495H12.5339H12.5183H12.5027H12.4871H12.4716H12.4561H12.4406H12.4251H12.4096H12.3942H12.3787H12.3633H12.3479H12.3326H12.3172H12.3019H12.2866H12.2713H12.2561H12.2408H12.2256H12.2104H12.1952H12.1801H12.1649H12.1498H12.1347H12.1197H12.1046H12.0896H12.0746H12.0596H12.0447H12.0298H12.0149H12H11.9851H11.9702H11.9553H11.9403H11.9253H11.9104H11.8953H11.8803H11.8652H11.8501H11.835H11.8199H11.8047H11.7896H11.7744H11.7592H11.7439H11.7287H11.7134H11.6981H11.6827H11.6674H11.652H11.6366H11.6212H11.6058H11.5904H11.5749H11.5594H11.5439H11.5284H11.5128H11.4973H11.4817H11.4661H11.4504H11.4348H11.4191H11.4035H11.3878H11.372H11.3563H11.3405H11.3248H11.309H11.2932H11.2773H11.2615H11.2456H11.2298H11.2139H11.1979H11.182H11.1661H11.1501H11.1341H11.1181H11.1021H11.0861H11.07H11.054H11.0379H11.0218H11.0057H10.9896H10.9734H10.9573H10.9411H10.9249H10.9087H10.8925H10.8763H10.86H10.8438H10.8275H10.8112H10.7949H10.7786H10.7623H10.7459H10.7296H10.7132H10.6968H10.6804H10.664H10.6476H10.6312H10.6147H10.5983H10.5818H10.5653H10.5488H10.5323H10.5158H10.4993H10.4827H10.4662H10.4496H10.433H10.4164H10.3998H10.3832H10.3666H10.35H10.3333H10.3167H10.3H10.2834H10.2667H10.25H10.2333H10.2166H10.1998H10.1831H10.1664H10.1496H10.1329H10.1161H10.0993H10.0826H10.0658H10.049H10.0322H10.0153H9.99851H9.98168H9.96484H9.948H9.93114H9.91428H9.89741H9.88054H9.86365H9.84676H9.82987H9.81296H9.79605H9.77914H9.76221H9.74529H9.72835H9.71141H9.69447H9.67752H9.66056H9.6436H9.62663H9.60966H9.59268H9.5757H9.55871H9.54172H9.52472H9.50772H9.49072H9.47371H9.4567H9.43968H9.42266H9.40564H9.38861H9.37158H9.35455H9.33751H9.32047H9.30343H9.28639H9.26934H9.25229H9.23524H9.21818H9.20113H9.18407H9.16701H9.14995H9.13288H9.11582H9.09875H9.08169H9.06462H9.04755H9.03048H9.01341H8.99634H8.97926H8.96219H8.94512H8.92805H8.91098H8.8939H8.87683H8.85976H8.84269H8.82562H8.80855H8.79148H8.77442H8.75735H8.74029H8.72322H8.70616H8.6891H8.67204H8.65499H8.63793H8.62088H8.60383H8.58678H8.56974H8.5527H8.53566H8.51862H8.50159H8.48456H8.46754H8.45051H8.43349H8.41648H8.39947H8.38246H8.36545H8.34845H8.33146H8.31447H8.29748H8.2805H8.26353H8.24655H8.22959H8.21263H8.19567H8.17872H8.16178H8.14484H8.1279H8.11098H8.09405H8.07714H8.06023H8.04333H8.02643H8.00954H7.99266H7.97579H7.95892H7.94206H7.92521H7.90836H7.89152H7.87469H7.85787H7.84105H7.82425H7.80745H7.79066H7.77388H7.7571H7.74034H7.72358H7.70684H7.6901H7.67337H7.65665H7.63994H7.62324H7.60655H7.58987H7.5732H7.55654H7.53989H7.52326H7.50663H7.49001H7.4734H7.4568H7.44022H7.42364H7.40708H7.39053H7.37399H7.35746H7.34094H7.32444H7.30794H7.29146H7.27499H7.25854H7.24209H7.22566H7.20924H7.19284H7.17644H7.16006H7.1437H7.12734H7.111H7.09468H7.07837H7.06207H7.04578H7.02951H7.01326H6.99702H6.98079H6.96458H6.94838H6.9322H6.91603H6.89987H6.88374H6.86762H6.85151H6.83542H6.81934H6.80328H6.78724H6.77121H6.7552H6.73921H6.72323H6.70727H6.69132H6.67539H6.65948H6.64359H6.62771H6.61185H6.59601H6.58019H6.56438H6.54859H6.53282H6.51707H6.50134H6.48562H6.46993H6.45425H6.43859H6.42295H6.40733H6.39172H6.37614H6.36058H6.34503H6.32951H6.314H6.29852H6.28305H6.26761H6.25218H6.23678H6.22139H6.20603H6.19069H6.17537H6.16007H6.14479H6.12953H6.11429H6.09908H6.08389H6.06871H6.05356H6.03844H6.02333H6.00825H5.99319H5.97815H5.96313H5.94814H5.93317H5.91822H5.9033H5.8884H5.87352H5.85867H5.84384H5.82903H5.81425H5.79949H5.78476H5.77005H5.75536H5.7407H5.72606H5.71145H5.69687H5.68231H5.66777H5.65326H5.63877H5.62431H5.60988H5.59547H5.58109H5.56673H5.5524H5.5381H5.52382H5.50957H5.49534H5.48114H5.46697H5.45283H5.43871H5.42462H5.41056H5.39653H5.38252H5.36854H5.35459H5.34067H5.32677H5.31291H5.29907H5.28526H5.27148H5.25773H5.244H5.23031H5.21664H5.20301H5.1894H5.17583H5.16228H5.14876H5.13527H5.12182H5.10839H5.09499H5.08163H5.06829H5.05499H5.04171H5.02847H5.01526H5.00208H4.98893H4.97581H4.96272H4.94967H4.93664H4.92365H4.91069H4.89777H4.88487H4.87201H4.85918H4.84638H4.83362H4.82089H4.80819H4.79552H4.78289H4.77029H4.75773H4.7452H4.7327H4.72024H4.70781H4.69541H4.68305H4.67073H4.65844H4.64618H4.63396H4.62177H4.60962H4.5975H4.58542H4.57337H4.56136H4.54939H4.53745H4.52554H4.51368H4.50185H4.49005H4.47829H4.46657H4.45489H4.44324H4.43163H4.42005H4.40852H4.39702H4.38556H4.37413H4.36275H4.3514H4.34009H4.32881H4.31758H4.30638H4.29522H4.28411H4.27303H4.26198H4.25098H4.24002H4.22909H4.21821H4.20736H4.19656H4.18579H4.17506H4.16438H4.15373H4.14312H4.13256H4.12203H4.11155C2.92265 22 2.00402 20.9747 2.11268 19.8025C2.25954 18.2181 2.49998 15.2712 2.49998 13C2.49998 12.4477 2.9477 12 3.49998 12ZM19.5129 14C19.5658 16.1693 19.7686 18.615 19.8958 19.9871C19.8959 19.9883 19.896 19.9892 19.896 19.9899C19.896 19.9908 19.8959 19.9913 19.8959 19.9915L19.8956 19.9928C19.8953 19.9938 19.8943 19.9957 19.8924 19.9978C19.8914 19.9989 19.8906 19.9996 19.8901 19.9999L19.8884 20H19.8779H19.8674H19.8568H19.8462H19.8356H19.8249H19.8142H19.8034H19.7926H19.7818H19.7709H19.7599H19.749H19.738H19.7269H19.7159H19.7047H19.6936H19.6824H19.6712H19.6599H19.6486H19.6372H19.6258H19.6144H19.6029H19.5914H19.5799H19.5683H19.5567H19.5451H19.5334H19.5217H19.5099H19.4981H19.4863H19.4744H19.4625H19.4506H19.4386H19.4266H19.4145H19.4025H19.3903H19.3782H19.366H19.3538H19.3415H19.3292H19.3169H19.3046H19.2922H19.2797H19.2673H19.2548H19.2422H19.2297H19.2171H19.2044H19.1918H19.1791H19.1663H19.1536H19.1408H19.128H19.1151H19.1022H19.0893H19.0763H19.0633H19.0503H19.0372H19.0242H19.011H18.9979H18.9847H18.9715H18.9583H18.945H18.9317H18.9183H18.905H18.8916H18.8781H18.8647H18.8512H18.8377H18.8241H18.8106H18.797H18.7833H18.7697H18.756H18.7422H18.7285H18.7147H18.7009H18.6871H18.6732H18.6593H18.6454H18.6314H18.6174H18.6034H18.5894H18.5753H18.5613H18.5471H18.533H18.5188H18.5046H18.4904H18.4761H18.4619H18.4476H18.4332H18.4189H18.4045H18.3901H18.3757H18.3612H18.3467H18.3322H18.3177H18.3031H18.2885H18.2739H18.2593H18.2446H18.2299H18.2152H18.2005H18.1857H18.1709H18.1561H18.1413H18.1264H18.1116H18.0967H18.0817H18.0668H18.0518H18.0368H18.0218H18.0068H17.9917H17.9766H17.9615H17.9464H17.9313H17.9161H17.9009H17.8857H17.8704H17.8552H17.8399H17.8246H17.8093H17.7939H17.7786H17.7632H17.7478H17.7324H17.7169H17.7014H17.686H17.6705H17.6549H17.6394H17.6238H17.6082H17.5926H17.577H17.5614H17.5457H17.53H17.5143H17.4986H17.4829H17.4671H17.4514H17.4356H17.4198H17.404H17.3881H17.3723H17.3564H17.3405H17.3246H17.3086H17.2927H17.2767H17.2608H17.2448H17.2288H17.2127H17.1967H17.1806H17.1645H17.1485H17.1323H17.1162H17.1001H17.0839H17.0678H17.0516H17.0354H17.0192H17.0029H16.9867H16.9705H16.9542H16.9379H16.9216H16.9053H16.889H16.8726H16.8563H16.8399H16.8235H16.8071H16.7907H16.7743H16.7579H16.7414H16.725H16.7085H16.692H16.6755H16.659H16.6425H16.626H16.6094H16.5929H16.5763H16.5597H16.5432H16.5266H16.51H16.4933H16.4767H16.4601H16.4434H16.4268H16.4101H16.3934H16.3767H16.36H16.3433H16.3266H16.3099H16.2931H16.2764H16.2596H16.2429H16.2261H16.2093H16.1925H16.1757H16.1589H16.1421H16.1253H16.1084H16.0916H16.0748H16.0579H16.041H16.0242H16.0073H15.9904H15.9735H15.9566H15.9397H15.9228H15.9059H15.889H15.8721H15.8551H15.8382H15.8212H15.8043H15.7873H15.7704H15.7534H15.7364H15.7195H15.7025H15.6855H15.6685H15.6515H15.6345H15.6175H15.6005H15.5835H15.5665H15.5495H15.5324H15.5154H15.4984H15.4813H15.4643H15.4473H15.4302H15.4132H15.3961H15.3791H15.362H15.345H15.3279H15.3109H15.2938H15.2767H15.2597H15.2426H15.2255H15.2085H15.1914H15.1743H15.1573H15.1402H15.1231H15.1061H15.089H15.0719H15.0548H15.0378H15.0207H15.0036H14.9866H14.9695H14.9524H14.9353H14.9183H14.9012H14.8841H14.8671H14.85H14.833H14.8159H14.7988H14.7818H14.7647H14.7477H14.7306H14.7136H14.6965H14.6795H14.6625H14.6454H14.6284H14.6114H14.5943H14.5773H14.5603H14.5433H14.5263H14.5092H14.4922H14.4752H14.4582H14.4413H14.4243H14.4073H14.3903H14.3733H14.3564H14.3394H14.3225H14.3055H14.2886H14.2716H14.2547H14.2378H14.2208H14.2039H14.187H14.1701H14.1532H14.1363H14.1194H14.1026H14.0857H14.0688H14.052H14.0351H14.0183H14.0015H13.9846H13.9678H13.951H13.9342H13.9174H13.9006H13.8839H13.8671H13.8503H13.8336H13.8168H13.8001H13.7834H13.7667H13.75H13.7333H13.7166H13.6999H13.6833H13.6666H13.65H13.6334H13.6167H13.6001H13.5835H13.5669H13.5504H13.5338H13.5172H13.5007H13.4842H13.4677H13.4511H13.4347H13.4182H13.4017H13.3852H13.3688H13.3524H13.3359H13.3195H13.3031H13.2868H13.2704H13.254H13.2377H13.2214H13.205H13.1887H13.1725H13.1562H13.1399H13.1237H13.1075H13.0912H13.075H13.0589H13.0427H13.0265H13.0104H12.9943H12.9782H12.9621H12.946H12.9299H12.9139H12.8978H12.8818H12.8658H12.8499H12.8339H12.8179H12.802H12.7861H12.7702H12.7543H12.7385H12.7226H12.7068H12.691H12.6752H12.6594H12.6437H12.6279H12.6122H12.5965H12.5808H12.5652H12.5495H12.5339H12.5183H12.5027H12.4871H12.4716H12.4561H12.4406H12.4251H12.4096H12.3942H12.3787H12.3633H12.3479H12.3326H12.3172H12.3019H12.2866H12.2713H12.2561H12.2408H12.2256H12.2104H12.1952H12.1801H12.1649H12.1498H12.1347H12.1197H12.1046H12.0896H12.0746H12.0596H12.0447H12.0298H12.0149H12H11.9851H11.9702H11.9553H11.9403H11.9253H11.9104H11.8953H11.8803H11.8652H11.8501H11.835H11.8199H11.8047H11.7896H11.7744H11.7592H11.7439H11.7287H11.7134H11.6981H11.6827H11.6674H11.652H11.6366H11.6212H11.6058H11.5904H11.5749H11.5594H11.5439H11.5284H11.5128H11.4973H11.4817H11.4661H11.4504H11.4348H11.4191H11.4035H11.3878H11.372H11.3563H11.3405H11.3248H11.309H11.2932H11.2773H11.2615H11.2456H11.2298H11.2139H11.1979H11.182H11.1661H11.1501H11.1341H11.1181H11.1021H11.0861H11.07H11.054H11.0379H11.0218H11.0057H10.9896H10.9734H10.9573H10.9411H10.9249H10.9087H10.8925H10.8763H10.86H10.8438H10.8275H10.8112H10.7949H10.7786H10.7623H10.7459H10.7296H10.7132H10.6968H10.6804H10.664H10.6476H10.6312H10.6147H10.5983H10.5818H10.5653H10.5488H10.5323H10.5158H10.4993H10.4827H10.4662H10.4496H10.433H10.4164H10.3998H10.3832H10.3666H10.35H10.3333H10.3167H10.3H10.2834H10.2667H10.25H10.2333H10.2166H10.1998H10.1831H10.1664H10.1496H10.1329H10.1161H10.0993H10.0826H10.0658H10.049H10.0322H10.0153H9.99851H9.98168H9.96484H9.948H9.93114H9.91428H9.89741H9.88054H9.86365H9.84676H9.82987H9.81296H9.79605H9.77914H9.76221H9.74529H9.72835H9.71141H9.69447H9.67752H9.66056H9.6436H9.62663H9.60966H9.59268H9.5757H9.55871H9.54172H9.52472H9.50772H9.49072H9.47371H9.4567H9.43968H9.42266H9.40564H9.38861H9.37158H9.35455H9.33751H9.32047H9.30343H9.28639H9.26934H9.25229H9.23524H9.21818H9.20113H9.18407H9.16701H9.14995H9.13288H9.11582H9.09875H9.08169H9.06462H9.04755H9.03048H9.01341H8.99634H8.97926H8.96219H8.94512H8.92805H8.91098H8.8939H8.87683H8.85976H8.84269H8.82562H8.80855H8.79148H8.77442H8.75735H8.74029H8.72322H8.70616H8.6891H8.67204H8.65499H8.63793H8.62088H8.60383H8.58678H8.56974H8.5527H8.53566H8.51862H8.50159H8.48456H8.46754H8.45051H8.43349H8.41648H8.39947H8.38246H8.36545H8.34845H8.33146H8.31447H8.29748H8.2805H8.26353H8.24655H8.22959H8.21263H8.19567H8.17872H8.16178H8.14484H8.1279H8.11098H8.09405H8.07714H8.06023H8.04333H8.02643H8.00954H7.99266H7.97579H7.95892H7.94206H7.92521H7.90836H7.89152H7.87469H7.85787H7.84105H7.82425H7.80745H7.79066H7.77388H7.7571H7.74034H7.72358H7.70684H7.6901H7.67337H7.65665H7.63994H7.62324H7.60655H7.58987H7.5732H7.55654H7.53989H7.52326H7.50663H7.49001H7.4734H7.4568H7.44022H7.42364H7.40708H7.39053H7.37399H7.35746H7.34094H7.32444H7.30794H7.29146H7.27499H7.25854H7.24209H7.22566H7.20924H7.19284H7.17644H7.16006H7.1437H7.12734H7.111H7.09468H7.07837H7.06207H7.04578H7.02951H7.01326H6.99702H6.98079H6.96458H6.94838H6.9322H6.91603H6.89987H6.88374H6.86762H6.85151H6.83542H6.81934H6.80328H6.78724H6.77121H6.7552H6.73921H6.72323H6.70727H6.69132H6.67539H6.65948H6.64359H6.62771H6.61185H6.59601H6.58019H6.56438H6.54859H6.53282H6.51707H6.50134H6.48562H6.46993H6.45425H6.43859H6.42295H6.40733H6.39172H6.37614H6.36058H6.34503H6.32951H6.314H6.29852H6.28305H6.26761H6.25218H6.23678H6.22139H6.20603H6.19069H6.17537H6.16007H6.14479H6.12953H6.11429H6.09908H6.08389H6.06871H6.05356H6.03844H6.02333H6.00825H5.99319H5.97815H5.96313H5.94814H5.93317H5.91822H5.9033H5.8884H5.87352H5.85867H5.84384H5.82903H5.81425H5.79949H5.78476H5.77005H5.75536H5.7407H5.72606H5.71145H5.69687H5.68231H5.66777H5.65326H5.63877H5.62431H5.60988H5.59547H5.58109H5.56673H5.5524H5.5381H5.52382H5.50957H5.49534H5.48114H5.46697H5.45283H5.43871H5.42462H5.41056H5.39653H5.38252H5.36854H5.35459H5.34067H5.32677H5.31291H5.29907H5.28526H5.27148H5.25773H5.244H5.23031H5.21664H5.20301H5.1894H5.17583H5.16228H5.14876H5.13527H5.12182H5.10839H5.09499H5.08163H5.06829H5.05499H5.04171H5.02847H5.01526H5.00208H4.98893H4.97581H4.96272H4.94967H4.93664H4.92365H4.91069H4.89777H4.88487H4.87201H4.85918H4.84638H4.83362H4.82089H4.80819H4.79552H4.78289H4.77029H4.75773H4.7452H4.7327H4.72024H4.70781H4.69541H4.68305H4.67073H4.65844H4.64618H4.63396H4.62177H4.60962H4.5975H4.58542H4.57337H4.56136H4.54939H4.53745H4.52554H4.51368H4.50185H4.49005H4.47829H4.46657H4.45489H4.44324H4.43163H4.42005H4.40852H4.39702H4.38556H4.37413H4.36275H4.3514H4.34009H4.32881H4.31758H4.30638H4.29522H4.28411H4.27303H4.26198H4.25098H4.24002H4.22909H4.21821H4.20736H4.19656H4.18579H4.17506H4.16438H4.15373H4.14312H4.13256H4.12203H4.11155L4.10989 19.9999C4.1094 19.9996 4.10856 19.9989 4.10754 19.9978C4.10566 19.9957 4.10471 19.9938 4.10436 19.9928L4.10408 19.9915L4.104 19.9899L4.10414 19.9871C4.23132 18.615 4.43416 16.1693 4.48704 14H6.437C6.76931 14 7.07992 14.1651 7.26585 14.4405L8.32642 16.0118C8.88419 16.8381 9.81602 17.3333 10.813 17.3333H12H13.187C14.184 17.3333 15.1158 16.8381 15.6735 16.0118L16.7341 14.4405C16.92 14.1651 17.2307 14 17.563 14H19.5129Z" fill="#333333"/>
</svg>

<svg xmlns="http://www.w3.org/2000/svg" width="24" height="24" fill="none" viewBox="0 0 24 24">
  <path fill="#333" fill-rule="evenodd" d="M12 1a1 1 0 011 1v5.731l3.325-3.038a1 1 0 011.35 1.476l-5 4.57a1 1 0 01-1.35 0l-5-4.57a1 1 0 011.35-1.476L11 7.73V2a1 1 0 011-1zM3.5 12h2.937a3 3 0 012.487 1.322l1.06 1.57a1 1 0 00.829.441h2.374a1 1 0 00.829-.44l1.06-1.571A3 3 0 0117.563 12H20.5a1 1 0 011 1c0 2.271.24 5.218.387 6.802A2.01 2.01 0 0119.888 22H4.112a2.01 2.01 0 01-2-2.198c.148-1.584.388-4.53.388-6.802a1 1 0 011-1zm16.013 2c.053 2.17.256 4.615.383 5.987v.005a.015.015 0 01-.004.006.012.012 0 01-.002.002H4.11l-.002-.002a.016.016 0 01-.004-.005v-.006c.127-1.372.33-3.818.383-5.987h1.95a1 1 0 01.829.44l1.06 1.572a3 3 0 002.487 1.321h2.374a3 3 0 002.487-1.321l1.06-1.572a1 1 0 01.829-.44h1.95z"/>
</svg>
